X:4730
T:El Barquero
R:Salea
C:Tradicional
S:Msica Tradicional Asturiana, (C) Tello & Tito. Asturies, 2001.
S:http://pagina.de/MusTradAst <telloytito@asturies.org>
N:El Barquero ye'l momentu cimeru de la Salea, xuegu que s'armaba nel puertu de Llanes coles lanches adornaes de flores (salear ye pasear en lancha) echando carreres pal llau del ro (la h.uente) o pal de la mar (La Pea de la Osa).
N:La Salea tien 20 carreres, can d'elles cola so cancin acompaada de panderetes y tambor.
N:El Barquero pertenez a la nmbero 18.
N:Llama l'atencin la so ruptura del ritmu de percusin siguiendo la meloda y la tema repetitiva de la lletra.
O:Llanes
A:Asturies
B:Musicologa Asturiana - La Cancin Tradicional, Modesto Gonzlez Cobas
Z:La Cancin Tradicional, M.G.C.
M:3/8
L:1/8
Q:3/8=50
W:digame el barquero cuerpo garrido
W:doncellas honradas cuntas pasan el ro
W:ntrate en mi barca linda morena
W:ntrate en mi barca linda morenita
W:ntrate en mi barca sers mi cadena
W:
W:---
W:
W:
W:Si algunas de ellas
W:cayera en el ro
W:fuera la esposita
W:de Don Rodrigo
W:
W:Qu'ntrate en mi barca, linda morena
W:Qu'ntrate en mi barca, linda morenita
W:Qu'ntrate en mi barca, linda morena
W:
W:Que tanto la estima
W:su dulce amigo,
W:scala barquero
W:de cuerpo garrido.
W:
W:Estribillu
W:
W:Dgame barquero,
W:duerpo garrido,
W:muchachas solteras
W:cuantas pasan el ro.
W:
W:Estribillu
W:
W:Tres de las casadas,
W:de las solteras cinco,
W:soletras, casadas
W:todas pasan el ro.
W:
W:Estribillu
W:
W:Si alguna de ellas
W:cayera en el vado
W:fuera la esposita
W:de Don Gonzalo.
W:
W:Estribillu
W:
W:Que tanto la estima
W:su dulce amado,
W:scala barquero
W:cuerpo gallardo.
W:
W:Estribillu
W:
W:Dgame barquero
W:cuerpo gallardo,
W:muchachas solteras
W:cuantas pasan el vado.
W:
W:Estribillu
W:
W:Tres de las casadas
W:de las solteras cuatro
W:solteras, casadas,
W:todas pasan el vado.
W:
W:Estribillu
K:Cm
G/
|c=Bc|d/e/ c>d|efe|d d>G|
|c=Bc|(d/e/)cc/d/|efe|dd z/ G/|
|c=Bc|(d/e/)(c>d)|cBA|GG>G|
|c=Bc|(d/e/)c>d|efe|dd z/ G/|
|c=Bc|(d/e/)c>d|cBA|GG z|
